X:1
T: Scotty Fitzgerald's Jig
C:Sandy MacIntyre
R:Jig
Q:180
K:A
M:6/8
L:1/16
E2|:A2B2A2 c4d2|e2a2g2 f2e2d2|c2B2A2 E2A2c2|B6 B4c2|
A2B2A2 c4d2|e2a2g2 f2e2d2|c2B2A2 E2c2B2|1A6 A4E2:|2A6 A4e2|
c'6 a6|a2g2a2 e4d2|c2B2A2 E2A2c2|
|1B6 B4e2|c'6 a6|a2g2a2 e2c2A2|d2c2d2 b2g2e2|a6 a4e2:|
|2B6 B4d2|c2d2e2 A2c2e2|d2e2f2 B2b2a2|g2f2e2 d2c2B2|A6 A4||
